X:1
T: Go to Berwick, Johnny
T: Berwick Billy
C:Trad
R: Hornpipe (3/2)
M: 3/2
L: 1/8
K: D
Z: ABC transcription by Verge Roller
r: 16
|: "D" A2 D2 D2 A2 BAGF | "D" A2 D2 D2 A2 F2 d2 | "D" A2 D2 D2 A2 BAGF | "A7" G2 E2 E2 F2 G2 B2 :|
"D" d3 e d2 A2 FGAF | "D" d3 e d2 A2 d2 f2 | "D" d3 e d2 A2 FGAF | "A7" G2 E2 E2 F2 G2 B2 |
"D" d3 e d2 A2 FGAF | "D" d3 e d2 A2 d2 f2 | "D" d3 e dcBA BAGF | "A7" G2 E2 E2 F2 G2 B2 |]
